X:36
T:Barham Down
C:Henry Playford, 1701
%%MIDI gchord fcHcfc
%%MIDI beat 100 95 80
S:Colin Hume's website,  colinhume.com  - chords can also be printed below the stave.
Q:1/2=110
M:3/2
L:1/4
K:D
P:A
|: "D"AG/F/ "/"ED "/"Ad | "D"AG/F/ "G"GA "A7"E2 | "D"AG/F/ "/"ED "A"Ac | "G"de/f/ "A7"g/f/e/d/ "D"d2 :|
P:B
|: "D"af "/"da "/"fd | "Em"gB "/"eB "A7"c2 | "D"d c/B/ "/"A/G/F/E/ "/"F/G/A/F/ | "G"Bc/d/ "A7"c/d/e/c/ "D"d2 :|

